X:072 
T:Harbourstown House (reel)
S:Jack Wade
F:file ID: cre.4/072harb_h
B:CRE4.121 (Teach Bhaile an Chuain)
Q:180
L:1/8
M:4/4
R:reel
K:G
gdBG DGBd|gdBG AEE2|gdBG DGBd|egdB cBAB|
gdBG D2 Bd|(3cBA BG AGEG|Bdef gdBG|cAFA G2 ||
Bc|d2 gd Bdgd|bdBG FGAB|cAeA aAfg|(3agf ge d2 Bc|
d2 gd Bdgd|gdaf gdBd|(3cBA FA DFAB|cAFA G4|]

%%%

